X: 453
P: Longways for as many as will
M: C|
L: 1/16
K: F
V: 1
|: c2 |\
|: c2 |\
V: 2 clef=bass middle=d
z2 |\
a4f4 c'4c4 | a4f4 g4c4 |\
a4f4 c'4c4 | d4g4 c6 :|\
|: z2 | f4F4 B4G4 |
|: z2 |\
f4g4 a4b4 | d4g4 c8 | f4g4 a4b4 | d4g4 c6 :|

